assets/Lungs/Flat/lungs_flat.svg

<svg width="32" height="32" viewBox="0 0 32 32" fill="none" xmlns="http://www.w3.org/2000/svg">
<path d="M22.1 17.14L17.15 12.19C17.05 12.09 17 11.97 17 11.83V2.31C17 2.14 16.86 2 16.69 2H15.31C15.14 2 15 2.14 15 2.31V11.83C15 11.96 14.95 12.09 14.85 12.18L9.90002 17.14L11.31 18.56L15.82 14.05C15.92 13.95 16.08 13.95 16.17 14.05L20.68 18.56L22.1 17.14Z" fill="#FFCE7C"/>
<path d="M15 3.96997H17C17.28 3.96997 17.5 3.74997 17.5 3.46997C17.5 3.18997 17.28 2.96997 17 2.96997H15C14.72 2.96997 14.5 3.18997 14.5 3.46997C14.5 3.74997 14.72 3.96997 15 3.96997Z" fill="#F3AD61"/>
<path d="M15 5.97998H17C17.28 5.97998 17.5 5.74998 17.5 5.47998C17.5 5.19998 17.28 4.97998 17 4.97998H15C14.72 4.97998 14.5 5.19998 14.5 5.47998C14.5 5.75998 14.72 5.97998 15 5.97998Z" fill="#F3AD61"/>
<path d="M17 7.97998H15C14.72 7.97998 14.5 7.75998 14.5 7.47998C14.5 7.19998 14.72 6.97998 15 6.97998H17C17.28 6.97998 17.5 7.19998 17.5 7.47998C17.5 7.74998 17.28 7.97998 17 7.97998Z" fill="#F3AD61"/>
<path d="M15 9.97998H17C17.28 9.97998 17.5 9.75998 17.5 9.47998C17.5 9.19998 17.28 8.97998 17 8.97998H15C14.72 8.97998 14.5 9.19998 14.5 9.47998C14.5 9.75998 14.72 9.97998 15 9.97998Z" fill="#F3AD61"/>
<path d="M13.99 8.96997C13.99 6.75997 12.2 4.96997 9.99 4.96997C8.8 4.96997 7.73 5.48997 6.99 6.31997L4.92 8.67997C3.04 10.81 2 13.55 2 16.39V27.69C2 29.1282 3.2524 30.1143 4.53 29.9893L10.37 29.99C12.37 29.99 14 28.37 14 26.36L14 13.48L13.99 13.4824V8.96997Z" fill="#F99EA3"/>
<path d="M18.01 8.96997C18.01 6.75997 19.8 4.96997 22.01 4.96997C23.2 4.96997 24.27 5.48997 25.01 6.31997L27.09 8.66997C28.96 10.81 30 13.55 30 16.39L30 27.69C30 29.1319 28.7411 30.1194 27.46 29.9883V29.99H21.63C19.63 29.99 18 28.37 18 26.36V13.48L18.01 13.4824V8.96997Z" fill="#F99EA3"/>
<path d="M2 18.6755V16.39C2 16.2702 2.00185 16.1506 2.00553 16.0312H2.01004C2.01004 16.1103 2.07161 16.3395 2.34818 16.5772C2.60486 16.7977 3.00366 16.9799 3.53125 16.9799H10.8281C11.59 16.9799 12.3987 16.6659 13.0133 16.1401C13.626 15.6159 13.9688 14.9528 13.9688 14.2899H14L14 17.9086C13.0981 18.5723 11.9697 18.9799 10.8281 18.9799H3.53125C2.98343 18.9799 2.46369 18.8695 2 18.6755Z" fill="#FF8687"/>
<path d="M4.0135 29.9803C2.93507 29.8378 2 28.9327 2 27.69V26.68H2.01562C2.01562 27.0921 2.30454 27.5331 2.89566 27.8026C3.48876 28.0729 4.12797 28.042 4.53904 27.768L4.58054 27.7403L11.0589 24.2986C12.9006 23.199 13.9688 22.4531 13.9688 20.9062H14L14 24.7466C13.4018 25.2305 12.7466 25.621 12.1557 25.9731L12.041 26.0415L5.6029 29.4619C5.10824 29.7798 4.56101 29.9412 4.0135 29.9803Z" fill="#FF8687"/>
<path d="M30 18.6755V16.39C30 16.2702 29.9982 16.1506 29.9945 16.0312H29.99C29.99 16.1103 29.9284 16.3395 29.6518 16.5772C29.3951 16.7977 28.9963 16.9799 28.4688 16.9799H21.1719C20.41 16.9799 19.6013 16.6659 18.9867 16.1401C18.374 15.6159 18.0312 14.9528 18.0312 14.2899H18L18 17.9086C18.9019 18.5723 20.0303 18.9799 21.1719 18.9799H28.4688C29.0166 18.9799 29.5363 18.8695 30 18.6755Z" fill="#FF8687"/>
<path d="M27.9865 29.9803C29.0649 29.8378 30 28.9327 30 27.69V26.68H29.9844C29.9844 27.0921 29.6955 27.5331 29.1043 27.8026C28.5112 28.0729 27.872 28.042 27.461 27.768L27.4195 27.7403L20.9411 24.2986C19.0994 23.199 18.0312 22.4531 18.0312 20.9062H18L18 24.7466C18.5982 25.2305 19.2534 25.621 19.8443 25.9731L19.959 26.0415L26.3971 29.4619C26.8918 29.7798 27.439 29.9412 27.9865 29.9803Z" fill="#FF8687"/>
</svg>

<svg xmlns="http://www.w3.org/2000/svg" width="32" height="32" fill="none"><path fill="#FFCE7C" d="m22.1 17.14-4.95-4.95c-.1-.1-.15-.22-.15-.36V2.31c0-.17-.14-.31-.31-.31h-1.38c-.17 0-.31.14-.31.31v9.52c0 .13-.05.26-.15.35L9.9 17.14l1.41 1.42 4.51-4.51c.1-.1.26-.1.35 0l4.51 4.51 1.42-1.42Z"/><path fill="#F3AD61" d="M15 3.97h2c.28 0 .5-.22.5-.5s-.22-.5-.5-.5h-2c-.28 0-.5.22-.5.5s.22.5.5.5ZM15 5.98h2c.28 0 .5-.23.5-.5 0-.28-.22-.5-.5-.5h-2c-.28 0-.5.22-.5.5s.22.5.5.5ZM17 7.98h-2c-.28 0-.5-.22-.5-.5s.22-.5.5-.5h2c.28 0 .5.22.5.5 0 .27-.22.5-.5.5ZM15 9.98h2c.28 0 .5-.22.5-.5s-.22-.5-.5-.5h-2c-.28 0-.5.22-.5.5s.22.5.5.5Z"/><path fill="#F99EA3" d="M13.99 8.97c0-2.21-1.79-4-4-4-1.19 0-2.26.52-3 1.35L4.92 8.68A11.651 11.651 0 0 0 2 16.39v11.3c0 1.438 1.252 2.424 2.53 2.3h5.84c2 0 3.63-1.62 3.63-3.63V13.48l-.01.002V8.97ZM18.01 8.97c0-2.21 1.79-4 4-4 1.19 0 2.26.52 3 1.35l2.08 2.35c1.87 2.14 2.91 4.88 2.91 7.72v11.3c0 1.442-1.259 2.43-2.54 2.298v.002h-5.83c-2 0-3.63-1.62-3.63-3.63V13.48l.01.002V8.97Z"/><path fill="#FF8687" d="M2 18.675V16.39c0-.12.002-.24.006-.359h.004c0 .08.062.309.338.546.257.22.656.403 1.183.403h7.297c.762 0 1.57-.314 2.185-.84.613-.524.956-1.187.956-1.85H14v3.619c-.902.663-2.03 1.07-3.172 1.07H3.531c-.548 0-1.067-.11-1.531-.303ZM4.013 29.98C2.935 29.838 2 28.933 2 27.69v-1.01h.016c0 .412.289.853.88 1.123.593.27 1.232.239 1.643-.035l.042-.028 6.478-3.441c1.842-1.1 2.91-1.846 2.91-3.393H14v3.84c-.598.485-1.253.875-1.844 1.227l-.115.069-6.438 3.42a3.362 3.362 0 0 1-1.59.518ZM30 18.675V16.39c0-.12-.002-.24-.006-.359h-.004c0 .08-.062.309-.338.546-.257.22-.656.403-1.183.403h-7.297c-.762 0-1.57-.314-2.185-.84-.613-.524-.956-1.187-.956-1.85H18v3.619c.902.663 2.03 1.07 3.172 1.07h7.297c.548 0 1.067-.11 1.531-.303ZM27.986 29.98C29.066 29.838 30 28.933 30 27.69v-1.01h-.016c0 .412-.289.853-.88 1.123-.593.27-1.232.239-1.643-.035l-.041-.028L20.94 24.3c-1.842-1.1-2.91-1.846-2.91-3.393H18v3.84c.598.485 1.253.875 1.844 1.227l.115.069 6.438 3.42c.495.318 1.042.48 1.59.518Z"/></svg>
